X:106
T:2nd A TS.106
M:3/8
L:1/8
Q:3/8=50
S:Thomas Sands’ MS,1810,Lincolnshire
R:waltz
O:England;Lincolnshire
Z:vmp.Ruairidh Greig, 2011
K:G
c|BcA|G2g|fge|d2c|BcA|G2g|fge|d2:|
|:f/g/|add|bdd|c’2b|a2g|fge|d2b|agf|g2:|
|:B/c/|dcB|gfe|edd|d2B|caa|a2c|Bgg|
g2B/c/|dcB|gfe|edd|d2B|ccc|A2F|GGG|G2:|]

